img/place_price2.svg

<svg width="7" height="9" viewBox="0 0 7 9" fill="none" xmlns="http://www.w3.org/2000/svg">
<path d="M4.14514 5.61182C5.96082 5.61182 7 4.47363 7 2.82568C7 1.23486 5.98399 0 4.14514 0H1.1628V4.27148H0V5.61182H1.1628V6.27979H0V7.62012H1.1628V9H2.59216V7.62012H4.32671V6.27979H2.59216V5.61182H4.14514ZM2.59216 4.27148V1.35352H4.14514C5.10706 1.35352 5.57064 1.99512 5.56678 2.83887C5.57064 3.7002 5.11479 4.27148 4.11424 4.27148H2.59216Z" fill="#222222"/>
</svg>

<svg width="7" height="9" viewBox="0 0 7 9" fill="none" xmlns="http://www.w3.org/2000/svg"><path d="M4.145 5.612C5.961 5.612 7 4.474 7 2.826 7 1.235 5.984 0 4.145 0H1.163v4.271H0v1.34h1.163v.669H0v1.34h1.163V9h1.43V7.62h1.734V6.28H2.592v-.668h1.553zm-1.553-1.34V1.353h1.553c.962 0 1.426.641 1.422 1.485.004.861-.452 1.432-1.453 1.432H2.592z" fill="#222"/></svg>
